X: 199
T: Gechang meili de jiaxiang
%%abc-version 2.0
%%abcx-abcm2ps-target-version 5.9.1 (29 Sep 2008)
%%abc-creator hum2abc beta
%%abcx-conversion-date 2013/10/02 07:44:28
%%abc-edited-by Helmut Schaffrath
%%humdrum-veritas 241670209
%%humdrum-veritas-data 3619620612
%%continueall 1
%%barnumbers 0
L: 1/16
K: A
z4e3 c [I:setbarnb 1]| 
e8- | 
e4e a e c | 
A4c4 | 
e8 | 
a2 z2 e3 c | 
e8- | 
e4e a e cA4 | 
[M:2/4]=c6A F | 
E2 z2 e2 c2 | 
e8- | 
e4e a e' c | 
A6F2 | 
E8 | 
e c e2 e a e c A2 | 
e c e2 e a e' c A2 | 
e c e2 e a e c A4<=c4A F | 
E4z4 |]  



